svg/weather/wet_fill.svg

<?xml version="1.0" encoding="UTF-8"?>
<svg width="24px" height="24px" viewBox="0 0 24 24" version="1.1" xmlns="http://www.w3.org/2000/svg" xmlns:xlink="http://www.w3.org/1999/xlink">
    <title>wet_fill</title>
    <g id="Icon" stroke="none" stroke-width="1" fill="none" fill-rule="evenodd">
        <g id="Weather" transform="translate(-721.000000, -240.000000)">
            <g id="wet_fill" transform="translate(721.000000, 240.000000)">
                <path d="M24,0 L24,24 L0,24 L0,0 L24,0 Z M12.5935,23.2578 L12.5819,23.2595 L12.5109,23.295 L12.4919,23.2987 L12.4767,23.295 L12.4057,23.2595 C12.3958,23.2564 12.387,23.259 12.3821,23.2649 L12.378,23.2758 L12.3609,23.7031 L12.3659,23.7235 L12.3769,23.7357 L12.4805,23.8097 L12.4953,23.8136 L12.5071,23.8097 L12.6107,23.7357 L12.6233,23.7197 L12.6267,23.7031 L12.6096,23.2758 C12.6076,23.2657 12.601,23.2593 12.5935,23.2578 Z M12.8584,23.1453 L12.8445,23.1473 L12.6598,23.2397 L12.6499,23.2499 L12.6472,23.2611 L12.6651,23.6906 L12.6699,23.7034 L12.6784,23.7105 L12.8793,23.8032 C12.8914,23.8069 12.9022,23.803 12.9078,23.7952 L12.9118,23.7812 L12.8777,23.1665 C12.8753,23.1546 12.8674,23.147 12.8584,23.1453 Z M12.143,23.1473 C12.1332,23.1424 12.1222,23.1453 12.1156,23.1526 L12.1099,23.1665 L12.0758,23.7812 C12.0751,23.7927 12.0828,23.8019 12.0926,23.8046 L12.1083,23.8032 L12.3092,23.7105 L12.3186,23.7024 L12.3225,23.6906 L12.3404,23.2611 L12.3372,23.2485 L12.3278,23.2397 L12.143,23.1473 Z" id="MingCute" fill-rule="nonzero"></path>
                <path d="M16.6958,2.37821 C17.1512,1.95791 17.8488,1.95792 18.3042,2.37821 C18.5841,2.63646 19.2337,3.26955 19.8205,4.1016 C20.3904,4.90964 21,6.0429 21,7.27768 C21,9.25154 19.5115,10.9999 17.5,10.9999 C15.4885,10.9999 14,9.25154 14,7.27768 C14,6.0429 14.6096,4.90964 15.1795,4.1016 C15.7663,3.26955 16.4159,2.63646 16.6958,2.37821 Z M4.70815,5.36339 C5.15912,4.95685 5.84088,4.95685 6.29185,5.36339 C6.49768,5.54894 6.89999,5.93594 7.25818,6.43581 C7.59978,6.91254 8,7.62697 8,8.44435 C8,9.82115 6.91468,10.9999 5.5,10.9999 C4.08532,10.9999 3,9.82115 3,8.44435 C3,7.62697 3.40022,6.91254 3.74182,6.43581 C4.10001,5.93594 4.50232,5.54894 4.70815,5.36339 Z M10.2108,9.36135 C10.6624,8.95948 11.3376,8.95948 11.7892,9.36135 C12.1527,9.68487 13.1786,10.6394 14.1212,11.921 C15.0436,13.175 16,14.8938 16,16.7221 C16,19.5727 13.8236,21.9999 11,21.9999 C8.1764,21.9999 6,19.5727 6,16.7221 C6,14.8938 6.95643,13.175 7.8788,11.921 C8.8214,10.6394 9.84727,9.68487 10.2108,9.36135 Z" id="形状" fill="#09244B"></path>
            </g>
        </g>
    </g>
</svg>

<svg xmlns="http://www.w3.org/2000/svg" width="24" height="24"><g fill="none" fill-rule="evenodd"><path d="M24 0v24H0V0h24ZM12.594 23.258l-.012.002-.071.035-.02.004-.014-.004-.071-.036c-.01-.003-.019 0-.024.006l-.004.01-.017.428.005.02.01.013.104.074.015.004.012-.004.104-.074.012-.016.004-.017-.017-.427c-.002-.01-.009-.017-.016-.018Zm.264-.113-.014.002-.184.093-.01.01-.003.011.018.43.005.012.008.008.201.092c.012.004.023 0 .029-.008l.004-.014-.034-.614c-.003-.012-.01-.02-.02-.022Zm-.715.002a.023.023 0 0 0-.027.006l-.006.014-.034.614c0 .012.007.02.017.024l.015-.002.201-.093.01-.008.003-.011.018-.43-.003-.012-.01-.01-.184-.092Z"/><path fill="#09244B" d="M16.696 2.378a1.183 1.183 0 0 1 1.608 0c.28.258.93.892 1.517 1.724C20.39 4.91 21 6.042 21 7.278 21 9.252 19.512 11 17.5 11 15.489 11 14 9.252 14 7.278c0-1.235.61-2.368 1.18-3.176a11.342 11.342 0 0 1 1.516-1.724ZM4.708 5.363a1.18 1.18 0 0 1 1.584 0c.206.186.608.573.966 1.073C7.6 6.913 8 7.627 8 8.444 8 9.821 6.915 11 5.5 11S3 9.82 3 8.444c0-.817.4-1.531.742-2.008.358-.5.76-.887.966-1.073Zm5.503 3.998a1.184 1.184 0 0 1 1.578 0c.364.324 1.39 1.278 2.332 2.56.923 1.254 1.879 2.973 1.879 4.801C16 19.572 13.824 22 11 22s-5-2.427-5-5.278c0-1.828.956-3.547 1.879-4.801a17.407 17.407 0 0 1 2.332-2.56Z"/></g></svg>
